assets/bank-tab/Asset/Fixed Deposit.svg

<svg width="24" height="24" viewBox="0 0 24 24" fill="none" xmlns="http://www.w3.org/2000/svg">
<path d="M16.3184 12.9996C15.9723 13.2298 15.5 12.7335 15.5 12.3178C15.5 11.4264 14.8712 10.6539 13.9932 10.4997C11.8667 10.126 10.0417 9.94768 8.10519 10.0087C7.66154 10.0227 7.24462 9.75875 7.14696 9.32575C7.05077 8.89926 7 8.45556 7 8C7 4.68629 9.68629 2 13 2C16.3137 2 19 4.68629 19 8C19 10.0867 17.9348 11.9246 16.3184 12.9996Z" fill="#297034"/>
<path d="M2.14531 10C1.18557 10 0.369862 10.7099 0.26409 11.6638C-0.0875991 14.8355 -0.0885923 17.1453 0.264485 20.3357C0.370062 21.2897 1.18575 22 2.14557 22C3.20316 22 4.06051 21.1427 4.06051 20.0851V17.9368C4.75312 19.4098 6.15254 20.4857 7.89569 20.577C10.037 20.6892 11.9807 20.5928 14.3696 20.2984C15.1638 20.2005 15.5609 20.1515 16.0492 20.0046C16.1262 19.9815 16.2528 19.94 16.3286 19.9131C16.8092 19.7424 17.1249 19.5655 17.7563 19.2116C19.7811 18.0769 21.3326 16.9065 23.4909 14.9184C24.0152 14.4354 24.1472 13.6615 23.8245 13.0258C23.4129 12.215 22.4122 11.9052 21.6144 12.3417L16.3754 15.2082C15.6664 15.5961 14.8713 15.7994 14.0631 15.7994H10.0968C9.62674 15.7994 9.24571 15.4184 9.24572 14.9483C9.24572 14.4783 9.62675 14.0973 10.0968 14.0973H13.043C13.8094 14.0973 14.4307 13.476 14.4307 12.7096C14.4307 12.0357 13.9461 11.4563 13.2801 11.3534C11.2579 11.0409 9.6021 10.9221 7.71701 11.0518C6.07052 11.165 4.73356 12.2248 4.06051 13.6701V11.9152C4.06051 10.8575 3.20305 10 2.14531 10Z" fill="#297034"/>
</svg>

<svg xmlns="http://www.w3.org/2000/svg" width="24" height="24" fill="none" viewBox="0 0 24 24"><path fill="#297034" d="M16.318 13c-.346.23-.818-.267-.818-.682 0-.892-.629-1.664-1.507-1.818-2.126-.374-3.951-.552-5.888-.491-.443.014-.86-.25-.958-.683A6 6 0 1 1 16.318 13"/><path fill="#297034" d="M2.145 10c-.96 0-1.775.71-1.88 1.664-.353 3.172-.354 5.481 0 8.672A1.88 1.88 0 0 0 2.144 22a1.915 1.915 0 0 0 1.916-1.915v-2.148c.692 1.473 2.092 2.549 3.835 2.64 2.141.112 4.085.016 6.474-.279.794-.097 1.19-.146 1.68-.293.076-.023.203-.065.279-.092.48-.17.796-.348 1.427-.701 2.025-1.135 3.577-2.305 5.735-4.294a1.59 1.59 0 0 0 .334-1.892 1.61 1.61 0 0 0-2.21-.684l-5.24 2.866a4.8 4.8 0 0 1-2.312.591h-3.966a.851.851 0 1 1 0-1.702h2.946c.766 0 1.388-.621 1.388-1.387 0-.674-.485-1.254-1.15-1.357-2.023-.312-3.679-.43-5.564-.301-1.646.113-2.983 1.173-3.656 2.618v-1.755A1.915 1.915 0 0 0 2.145 10"/></svg>
